X: 6776
T: Chapel Bell, The
R: jig
M: 6/8
K: Ddorian
G|:A2 D DEG|AdB c2 e|dcA AGE|c2 e dcA|
ADD DE/F/G|AdB c2 e|dcA AGE|1 GED DE/F/G:|2 GED D3||
|:A2 d ded|cde e2 d|c2 A AGE|c2 e dcA|
[1 Add ded|cde e2 d|cAA AGE|GED D2 G:|
[2 Ad^c ded|cde a2 g|edc AGE|GED D2||

